imgs/virtual-environment.svg

<svg width="62" height="52" viewBox="0 0 62 52" fill="none" xmlns="http://www.w3.org/2000/svg">
<path d="M31 24C32.6569 24 34 22.6569 34 21C34 19.3431 32.6569 18 31 18C29.3431 18 28 19.3431 28 21C28 22.6569 29.3431 24 31 24Z" fill="#6CA9F0"/>
<path d="M31 0C15.972 0 0 3.154 0 9V45C0 47.569 2.935 49.719 8.723 51.387C8.87193 51.4299 9.0288 51.4377 9.18122 51.4096C9.33365 51.3815 9.47746 51.3183 9.6013 51.2252C9.72514 51.132 9.82563 51.0112 9.89482 50.8726C9.96401 50.7339 10 50.581 10 50.426V40.347C16.8757 38.6976 23.9298 37.9092 31 38C38.0702 37.9092 45.1243 38.6976 52 40.347V50.426C52 50.581 52.036 50.7339 52.1052 50.8726C52.1744 51.0112 52.2749 51.132 52.3987 51.2252C52.5225 51.3183 52.6664 51.3815 52.8188 51.4096C52.9712 51.4377 53.1281 51.4299 53.277 51.387C59.065 49.719 62 47.569 62 45V9C62 3.154 46.028 0 31 0ZM52.723 13.465C52.5146 13.5251 52.3313 13.6513 52.2009 13.8247C52.0705 13.998 52 14.2091 52 14.426V38.28C45.118 36.6734 38.0665 35.9078 31 36C23.9335 35.9078 16.882 36.6734 10 38.28V14.426C10 14.2091 9.92952 13.998 9.7991 13.8247C9.66868 13.6513 9.48544 13.5251 9.277 13.465C3.912 11.919 2 10.145 2 9C2 6.077 13.032 2 31 2C48.968 2 60 6.077 60 9C60 10.145 58.088 11.919 52.723 13.465Z" fill="#6CA9F0"/>
<path d="M45.8 20.4C45.543 20.057 39.4 12 31 12C22.6 12 16.457 20.057 16.2 20.4C16.0702 20.5731 16 20.7836 16 21C16 21.2164 16.0702 21.4269 16.2 21.6C16.457 21.943 22.6 30 31 30C39.4 30 45.543 21.943 45.8 21.6C45.9298 21.4269 46 21.2164 46 21C46 20.7836 45.9298 20.5731 45.8 20.4ZM31 27C29.8133 27 28.6533 26.6481 27.6666 25.9888C26.6799 25.3295 25.9108 24.3925 25.4567 23.2961C25.0026 22.1997 24.8838 20.9933 25.1153 19.8295C25.3468 18.6656 25.9182 17.5965 26.7574 16.7574C27.5965 15.9182 28.6656 15.3468 29.8295 15.1153C30.9933 14.8838 32.1997 15.0026 33.2961 15.4567C34.3925 15.9108 35.3295 16.6799 35.9888 17.6666C36.6481 18.6533 37 19.8133 37 21C37 22.5913 36.3679 24.1174 35.2426 25.2426C34.1174 26.3679 32.5913 27 31 27Z" fill="#6CA9F0"/>
</svg>

<svg width="62" height="52" fill="none" xmlns="http://www.w3.org/2000/svg"><path d="M31 24a3 3 0 100-6 3 3 0 000 6z" fill="#6CA9F0"/><path d="M31 0C15.972 0 0 3.154 0 9v36c0 2.569 2.935 4.719 8.723 6.387A1 1 0 0010 50.426V40.347A85.327 85.327 0 0131 38c7.07-.09 14.124.698 21 2.347v10.079a1 1 0 001.277.961C59.065 49.719 62 47.569 62 45V9c0-5.846-15.972-9-31-9zm21.723 13.465a1 1 0 00-.723.961V38.28A87.36 87.36 0 0031 36a87.36 87.36 0 00-21 2.28V14.426a1 1 0 00-.723-.961C3.912 11.919 2 10.145 2 9c0-2.923 11.032-7 29-7s29 4.077 29 7c0 1.145-1.912 2.919-7.277 4.465z" fill="#6CA9F0"/><path d="M45.8 20.4c-.257-.343-6.4-8.4-14.8-8.4s-14.543 8.057-14.8 8.4a1 1 0 000 1.2c.257.343 6.4 8.4 14.8 8.4s14.543-8.057 14.8-8.4a1 1 0 000-1.2zM31 27a6 6 0 110-12 6 6 0 010 12z" fill="#6CA9F0"/></svg>
